X: 8
T: John O'Shea's March
Z: ceolachan
S: https://thesession.org/tunes/4770#setting28997
R: barndance
M: 4/4
L: 1/8
K: Gmaj
|: c/B/A |G2 D>E D2 D/E/F/G/ | A3 B de/d/ c/B/A | GE DE G2 F2 | G6 AB |
c3 d ef/e/ dc | B2 G2 A2- AB/c/ | dc BG FD EF/E/ | D6 A>B |
c2 cd e2 f/e/d/c/ | B3 G A2 Bc | d>c BG F>D E>D | D6 d/c/B/A/ |
G2 Bc d2 D/E/F/G/ | A3 B d2 BA | GE DE G2 F2 | G6 :|
